assets/Pleading face/Flat/pleading_face_flat.svg

<svg width="32" height="32" viewBox="0 0 32 32" fill="none" xmlns="http://www.w3.org/2000/svg">
<path d="M15.9989 29.9978C25.3333 29.9978 29.9978 23.7303 29.9978 15.9989C29.9978 8.26751 25.3333 2 15.9989 2C6.66443 2 2 8.26751 2 15.9989C2 23.7303 6.66443 29.9978 15.9989 29.9978Z" fill="#FFB02E"/>
<path d="M15 16.5C15 18.9853 12.9853 21 10.5 21C8.01472 21 6 18.9853 6 16.5C6 14.0147 8.01472 12 10.5 12C12.9853 12 15 14.0147 15 16.5Z" fill="white"/>
<path d="M25.96 16.48C25.96 18.9542 23.9542 20.96 21.48 20.96C19.0058 20.96 17 18.9542 17 16.48C17 14.0058 19.0058 12 21.48 12C23.9542 12 25.96 14.0058 25.96 16.48Z" fill="white"/>
<path d="M10.88 12C8.74 12 7 13.74 7 15.88C7 18.02 8.74 19.76 10.88 19.76C13.02 19.76 14.76 18.02 14.76 15.88C14.76 13.74 13.02 12 10.88 12Z" fill="#402A32"/>
<path d="M20.88 12C18.74 12 17 13.74 17 15.88C17 18.02 18.74 19.76 20.88 19.76C23.02 19.76 24.76 18.02 24.76 15.88C24.76 13.74 23.02 12 20.88 12Z" fill="#402A32"/>
<path d="M13.1626 15.9369C13.908 15.6999 14.2117 14.8666 13.8436 14.0716C13.4755 13.2842 12.5828 12.8255 11.8374 13.0625C11.092 13.2995 10.7883 14.1328 11.1564 14.9278C11.5245 15.7228 12.4172 16.1739 13.1626 15.9369Z" fill="white"/>
<path d="M23.1626 15.9369C23.908 15.6999 24.2117 14.8666 23.8436 14.0716C23.4755 13.2842 22.5736 12.8255 21.8374 13.0625C21.092 13.2995 20.7883 14.1328 21.1564 14.9278C21.5245 15.7228 22.4172 16.1739 23.1626 15.9369Z" fill="white"/>
<path d="M8.95171 9.19972C9.49215 8.72506 9.82675 8.07318 10.0174 7.36929C10.0896 7.10275 10.3642 6.9452 10.6307 7.01739C10.8973 7.08958 11.0548 7.36417 10.9826 7.63071C10.7577 8.46121 10.3423 9.30933 9.61161 9.95107C8.87301 10.5998 7.85473 11 6.5 11C6.22386 11 6 10.7761 6 10.5C6 10.2239 6.22386 10 6.5 10C7.64527 10 8.4192 9.66742 8.95171 9.19972Z" fill="#402A32"/>
<path d="M14.8961 25.4453C14.8941 25.4481 14.8936 25.4489 14.8944 25.4472C14.6474 25.9412 14.0468 26.1414 13.5528 25.8944C13.0588 25.6474 12.8586 25.0468 13.1056 24.5528C13.4341 23.8958 14.4046 23 16 23C17.5954 23 18.5659 23.8958 18.8944 24.5528C19.1414 25.0468 18.9412 25.6474 18.4472 25.8944C17.9532 26.1414 17.3526 25.9412 17.1056 25.4472C17.1057 25.4474 17.1059 25.4479 17.1056 25.4472L17.1039 25.4453C17.091 25.4273 17.018 25.3246 16.8527 25.22C16.6796 25.1104 16.4061 25 16 25C15.5939 25 15.3204 25.1104 15.1473 25.22C14.982 25.3246 14.909 25.4273 14.8961 25.4453Z" fill="#402A32"/>
<path d="M21.9826 7.36929C22.1733 8.07318 22.5079 8.72506 23.0483 9.19972C23.5808 9.66742 24.3547 10 25.5 10C25.7761 10 26 10.2239 26 10.5C26 10.7761 25.7761 11 25.5 11C24.1453 11 23.127 10.5998 22.3884 9.95107C21.6577 9.30933 21.2423 8.46121 21.0174 7.63071C20.9452 7.36417 21.1027 7.08958 21.3693 7.01739C21.6358 6.9452 21.9104 7.10275 21.9826 7.36929Z" fill="#402A32"/>
</svg>

<svg xmlns="http://www.w3.org/2000/svg" width="32" height="32" fill="none"><path fill="#FFB02E" d="M15.999 29.998c9.334 0 13.999-6.268 13.999-14 0-7.73-4.665-13.998-14-13.998C6.665 2 2 8.268 2 15.999c0 7.731 4.664 13.999 13.999 13.999Z"/><path fill="#fff" d="M15 16.5a4.5 4.5 0 1 1-9 0 4.5 4.5 0 0 1 9 0ZM25.96 16.48a4.48 4.48 0 1 1-8.96 0 4.48 4.48 0 0 1 8.96 0Z"/><path fill="#402A32" d="M10.88 12C8.74 12 7 13.74 7 15.88c0 2.14 1.74 3.88 3.88 3.88 2.14 0 3.88-1.74 3.88-3.88 0-2.14-1.74-3.88-3.88-3.88ZM20.88 12C18.74 12 17 13.74 17 15.88c0 2.14 1.74 3.88 3.88 3.88 2.14 0 3.88-1.74 3.88-3.88 0-2.14-1.74-3.88-3.88-3.88Z"/><path fill="#fff" d="M13.163 15.937c.745-.237 1.049-1.07.68-1.865-.367-.788-1.26-1.246-2.006-1.01-.745.238-1.049 1.07-.68 1.866.367.795 1.26 1.246 2.006 1.009ZM23.163 15.937c.745-.237 1.049-1.07.68-1.865-.367-.788-1.27-1.246-2.006-1.01-.745.238-1.049 1.07-.68 1.866.367.795 1.26 1.246 2.006 1.009Z"/><path fill="#402A32" d="M8.952 9.2c.54-.475.875-1.127 1.065-1.83a.5.5 0 0 1 .966.26c-.225.831-.64 1.68-1.371 2.321C8.873 10.6 7.855 11 6.5 11a.5.5 0 0 1 0-1c1.145 0 1.92-.333 2.452-.8ZM14.896 25.445c-.002.003-.002.004-.002.002a1 1 0 1 1-1.788-.894C13.434 23.896 14.405 23 16 23c1.595 0 2.566.896 2.894 1.553a1 1 0 1 1-1.788.894l-.002-.002c-.013-.018-.086-.12-.251-.225-.173-.11-.447-.22-.853-.22-.406 0-.68.11-.853.22-.165.105-.238.207-.25.225ZM21.983 7.37c.19.703.525 1.355 1.065 1.83.533.467 1.307.8 2.452.8a.5.5 0 0 1 0 1c-1.355 0-2.373-.4-3.112-1.049-.73-.642-1.146-1.49-1.37-2.32a.5.5 0 1 1 .965-.262Z"/></svg>
